X:1
T:Title
L:1/8
Q:1/4=130
M:6/4
K:D
V:1 treble nm="Church Organ, Staff"
V:1
 A2 A2 B2 c2 d2 F2 | G2 A2 D2 E2 F2 B,2 | C2 D4 F2 B4 | d2 c4- c2 c4 | B2 A2 B2 c2 d2 F2 | %5
w: By~Rev.~R.~F.~Smith * * * * *|||||
 G2 A2 D2 E2 F4 | B2 d2 c2 B2 A4 | ^G2 A4- A3/2 z/ z2 z2 | A2 ^A4 d2 =c2 F2 | G2 A2 D2 E2 F4 | %10
w: |||||
 G2 A4 A2 B4 | B2 c4- c3/2 z/ z2 z2 | c2 d2 F2 G2 A2 D2 | E2 F4 F2 B4 | E2 A4 G2 F4 | %15
w: |||||
 E2 D4- D3/2 z/ z2 z2 |] %16
w: |

